src/assets/icons/filter.svg

<svg width="14" height="14" viewBox="0 0 14 14" fill="none" xmlns="http://www.w3.org/2000/svg">
<g id="filter">
<g clip-path="url(#clip0_156_4714)">
<path id="Vector" fill-rule="evenodd" clip-rule="evenodd" d="M0.272582 0.338461C0.377789 0.130844 0.590777 0 0.823529 0H13.1765C13.4092 0 13.6222 0.130844 13.7274 0.338461C13.8326 0.546078 13.8122 0.795209 13.6745 0.982901L9.26471 6.99632V13.3824C9.26471 13.7235 8.98818 14 8.64706 14H5.35294C5.01182 14 4.73529 13.7235 4.73529 13.3824V6.99632L0.325456 0.982901C0.187815 0.795209 0.167374 0.546078 0.272582 0.338461ZM2.0424 1.23529L5.85101 6.42886C5.9287 6.5348 5.97059 6.66275 5.97059 6.79412V12.7647H8.02941V6.79412C8.02941 6.66275 8.0713 6.5348 8.14898 6.42886L11.9576 1.23529H2.0424Z" fill="black"/>
</g>
</g>
<defs>
<clipPath id="clip0_156_4714">
<rect width="14" height="14" fill="white"/>
</clipPath>
</defs>
</svg>

<svg xmlns="http://www.w3.org/2000/svg" fill="none" viewBox="0 0 14 14"><g clip-path="url(#a)"><path fill="#000" fill-rule="evenodd" d="M.273.338A.62.62 0 0 1 .823 0h12.354a.618.618 0 0 1 .498.983l-4.41 6.013v6.386a.62.62 0 0 1-.618.618H5.353a.62.62 0 0 1-.618-.618V6.996L.325.983A.62.62 0 0 1 .273.338m1.77.897L5.85 6.43c.078.106.12.234.12.365v5.97h2.058v-5.97c0-.131.042-.26.12-.365l3.809-5.194z" clip-rule="evenodd"/></g><defs><clipPath id="a"><path fill="#fff" d="M0 0h14v14H0z"/></clipPath></defs></svg>
